public/logo.svg

<svg xmlns="http://www.w3.org/2000/svg" viewBox="0 0 36 36"><path fill="#8CCAF7" d="M34.5 24.995c0 2.209-1.791 2-4 2h-25c-2.209 0-4 .209-4-2L3.5 11c.293-1.75 1-2 2-2h25c1 0 1.791.208 2 2l2 13.995z"/><path fill="#292F33" d="M28.5 16.5c0 .829-.672 1.5-1.5 1.5H9c-.829 0-1.5-.671-1.5-1.5S8.172 15 9 15h18c.828 0 1.5.671 1.5 1.5z"/><path fill="#FFD983" d="M26.25 17.188v-14c0-1.105-.895-2-2-2h-13c-1.104 0-2 .895-2 2v14h17z"/><path fill="#5DADEC" d="M34.5 25c0-1.104-.896-2-2-2h-29c-1.104 0-2 .896-2 2v8c0 1.104.896 2 2 2h29c1.104 0 2-.896 2-2v-8z"/><path fill="#4289C1" d="M13.5 23v6c0 1.104.896 2 2 2h5c1.105 0 2-.896 2-2v-6h-9z"/><path fill="#5DADEC" d="M22.5 23v-1c0-1.104-.895-2-2-2h-5c-1.104 0-2 .896-2 2v1h9zm-3 4.5c0 .828-.672 1.5-1.5 1.5-.829 0-1.5-.672-1.5-1.5v-1c0-.828.671-1.5 1.5-1.5.828 0 1.5.672 1.5 1.5v1z"/><path d="M24 5c0 .276-.224.5-.5.5H16c-.276 0-.5-.224-.5-.5s.224-.5.5-.5h7.5c.276 0 .5.224.5.5m0 4c0 .276-.224.5-.5.5H16c-.276 0-.5-.224-.5-.5s.224-.5.5-.5h7.5c.276 0 .5.224.5.5m0 4c0 .276-.224.5-.5.5H16c-.276 0-.5-.224-.5-.5s.224-.5.5-.5h7.5c.276 0 .5.224.5.5" fill="#C1694F"/><g fill="#C1694F"><circle cx="13" cy="5" r="1"/><circle cx="13" cy="9" r="1"/><circle cx="13" cy="13" r="1"/></g></svg>

<svg width="36" height="36" viewBox="0 0 36 36" fill="none" xmlns="http://www.w3.org/2000/svg">
<path d="M34.5 24.995C34.5 27.204 32.709 26.995 30.5 26.995H5.5C3.291 26.995 1.5 27.204 1.5 24.995L3.5 11C3.793 9.25 4.5 9 5.5 9H30.5C31.5 9 32.291 9.208 32.5 11L34.5 24.995Z" fill="#05CC68"/>
<path d="M28.5 16.5C28.5 17.329 27.828 18 27 18H9C8.171 18 7.5 17.329 7.5 16.5C7.5 15.671 8.172 15 9 15H27C27.828 15 28.5 15.671 28.5 16.5Z" fill="#292F33"/>
<path d="M26.25 17.188V3.188C26.25 2.083 25.355 1.188 24.25 1.188H11.25C10.146 1.188 9.25 2.083 9.25 3.188V17.188H26.25Z" fill="#FFD983"/>
<path d="M34.5 25C34.5 23.896 33.604 23 32.5 23H3.5C2.396 23 1.5 23.896 1.5 25V33C1.5 34.104 2.396 35 3.5 35H32.5C33.604 35 34.5 34.104 34.5 33V25Z" fill="#00AB55"/>
<path d="M13.5 23V29C13.5 30.104 14.396 31 15.5 31H20.5C21.605 31 22.5 30.104 22.5 29V23H13.5Z" fill="#00BB84"/>
<path d="M22.5 23V22C22.5 20.896 21.605 20 20.5 20H15.5C14.396 20 13.5 20.896 13.5 22V23H22.5ZM19.5 27.5C19.5 28.328 18.828 29 18 29C17.171 29 16.5 28.328 16.5 27.5V26.5C16.5 25.672 17.171 25 18 25C18.828 25 19.5 25.672 19.5 26.5V27.5Z" fill="#00BB84"/>
<path d="M24 5C24 5.276 23.776 5.5 23.5 5.5H16C15.724 5.5 15.5 5.276 15.5 5C15.5 4.724 15.724 4.5 16 4.5H23.5C23.776 4.5 24 4.724 24 5ZM24 9C24 9.276 23.776 9.5 23.5 9.5H16C15.724 9.5 15.5 9.276 15.5 9C15.5 8.724 15.724 8.5 16 8.5H23.5C23.776 8.5 24 8.724 24 9ZM24 13C24 13.276 23.776 13.5 23.5 13.5H16C15.724 13.5 15.5 13.276 15.5 13C15.5 12.724 15.724 12.5 16 12.5H23.5C23.776 12.5 24 12.724 24 13Z" fill="#C1694F"/>
<path d="M13 6C13.5523 6 14 5.55228 14 5C14 4.44772 13.5523 4 13 4C12.4477 4 12 4.44772 12 5C12 5.55228 12.4477 6 13 6Z" fill="#C1694F"/>
<path d="M13 10C13.5523 10 14 9.55228 14 9C14 8.44772 13.5523 8 13 8C12.4477 8 12 8.44772 12 9C12 9.55228 12.4477 10 13 10Z" fill="#C1694F"/>
<path d="M13 14C13.5523 14 14 13.5523 14 13C14 12.4477 13.5523 12 13 12C12.4477 12 12 12.4477 12 13C12 13.5523 12.4477 14 13 14Z" fill="#C1694F"/>
</svg>
